la/door-closed-solid.svg

<svg xmlns="http://www.w3.org/2000/svg" viewBox="0 0 32 32" height="1em" width="1em">
  <path d="M 8 5 L 8 27 L 24 27 L 24 5 Z M 10 7 L 22 7 L 22 25 L 10 25 Z M 20 15 C 19.449219 15 19 15.449219 19 16 C 19 16.550781 19.449219 17 20 17 C 20.550781 17 21 16.550781 21 16 C 21 15.449219 20.550781 15 20 15 Z"/>
</svg>

<svg xmlns="http://www.w3.org/2000/svg" viewBox="0 0 32 32" height="1em" width="1em">
  <path d="M8 5v22h16V5Zm2 2h12v18H10Zm10 8c-.55 0-1 .45-1 1s.45 1 1 1 1-.45 1-1-.45-1-1-1Z"/>
</svg>
